src/gui/emoticons/spaceinvader.svg

<svg xmlns="http://www.w3.org/2000/svg" xmlns:xlink="http://www.w3.org/1999/xlink" width="16pt" height="16pt" version="1.1" viewBox="0 0 16 16"><defs><linearGradient id="linear0" x1="64" x2="64" y1="110.4" y2="17.6" gradientTransform="matrix(0.125,0,0,0.125,0,0)" gradientUnits="userSpaceOnUse"><stop offset=".072" style="stop-color:#792d85;stop-opacity:1"/><stop offset=".305" style="stop-color:#ac1cb3;stop-opacity:1"/><stop offset=".542" style="stop-color:#d90ddc;stop-opacity:1"/><stop offset=".725" style="stop-color:#f503f6;stop-opacity:1"/><stop offset=".831" style="stop-color:#f0f;stop-opacity:1"/></linearGradient></defs><g id="surface1"><path style="stroke:none;fill-rule:nonzero;fill:#40c0e7;fill-opacity:1" d="M 3.648438 13.800781 L 5.101562 13.800781 L 5.101562 15.25 L 3.648438 15.25 Z M 3.648438 13.800781"/><path style="stroke:none;fill-rule:nonzero;fill:#f0f;fill-opacity:1" d="M 3.648438 0.75 L 5.101562 0.75 L 5.101562 2.199219 L 3.648438 2.199219 Z M 3.648438 0.75"/><path style="stroke:none;fill-rule:nonzero;fill:#40c0e7;fill-opacity:1" d="M 10.898438 13.800781 L 12.351562 13.800781 L 12.351562 15.25 L 10.898438 15.25 Z M 10.898438 13.800781"/><path style="stroke:none;fill-rule:nonzero;fill:url(#linear0)" d="M 13.800781 6.546875 L 13.800781 5.097656 L 12.351562 5.097656 L 12.351562 3.648438 L 10.898438 3.648438 L 10.898438 2.199219 L 9.449219 2.199219 L 9.449219 3.648438 L 6.550781 3.648438 L 6.550781 2.199219 L 5.101562 2.199219 L 5.101562 3.648438 L 3.648438 3.648438 L 3.648438 5.097656 L 2.199219 5.097656 L 2.199219 6.546875 L 0.75 6.546875 L 0.75 12.347656 L 2.199219 12.347656 L 2.199219 8 L 3.648438 8 L 3.648438 12.347656 L 5.097656 12.347656 L 5.101562 12.351562 L 5.101562 13.800781 L 6.550781 13.800781 L 6.550781 11.382812 L 5.101562 11.382812 L 5.101562 9.933594 L 10.898438 9.933594 L 10.898438 11.382812 L 9.449219 11.382812 L 9.449219 13.800781 L 10.898438 13.800781 L 10.898438 12.351562 L 10.902344 12.347656 L 12.351562 12.347656 L 12.351562 8 L 13.800781 8 L 13.800781 12.347656 L 15.25 12.347656 L 15.25 6.546875 Z M 5.101562 5.097656 L 6.550781 5.097656 L 6.550781 6.546875 L 5.101562 6.546875 Z M 10.898438 6.546875 L 9.449219 6.546875 L 9.449219 5.097656 L 10.898438 5.097656 Z M 10.898438 6.546875"/><path style="stroke:none;fill-rule:nonzero;fill:#f0f;fill-opacity:1" d="M 10.898438 0.75 L 12.351562 0.75 L 12.351562 2.199219 L 10.898438 2.199219 Z M 10.898438 0.75"/><path style="fill-rule:nonzero;fill:#792d85;fill-opacity:1;stroke-width:4;stroke-linecap:butt;stroke-linejoin:miter;stroke:#6f21a1;stroke-opacity:1;stroke-miterlimit:10" d="M 29.1875 110.40625 L 40.8125 110.40625 L 40.8125 122 L 29.1875 122 Z M 29.1875 110.40625" transform="matrix(0.125,0,0,0.125,0,0)"/><path style="fill:none;stroke-width:4;stroke-linecap:butt;stroke-linejoin:miter;stroke:#6f21a1;stroke-opacity:1;stroke-miterlimit:10" d="M 29.1875 6 L 40.8125 6 L 40.8125 17.59375 L 29.1875 17.59375 Z M 29.1875 6" transform="matrix(0.125,0,0,0.125,0,0)"/><path style="fill-rule:nonzero;fill:#792d85;fill-opacity:1;stroke-width:4;stroke-linecap:butt;stroke-linejoin:miter;stroke:#6f21a1;stroke-opacity:1;stroke-miterlimit:10" d="M 87.1875 110.4 L 98.8125 110.4 L 98.8125 121.99375 L 87.1875 121.99375 Z M 87.1875 110.4" transform="matrix(-0.125,-0.00000000000560575,0.00000000000560575,-0.125,23.25,29.05)"/><path style="fill:none;stroke-width:4;stroke-linecap:butt;stroke-linejoin:miter;stroke:#6f21a1;stroke-opacity:1;stroke-miterlimit:10" d="M 110.40625 52.375 L 110.40625 40.78125 L 98.8125 40.78125 L 98.8125 29.1875 L 87.1875 29.1875 L 87.1875 17.59375 L 75.59375 17.59375 L 75.59375 29.1875 L 52.40625 29.1875 L 52.40625 17.59375 L 40.8125 17.59375 L 40.8125 29.1875 L 29.1875 29.1875 L 29.1875 40.78125 L 17.59375 40.78125 L 17.59375 52.375 L 6 52.375 L 6 98.78125 L 17.59375 98.78125 L 17.59375 64 L 29.1875 64 L 29.1875 98.78125 L 40.78125 98.78125 L 40.8125 110.40625 L 52.40625 110.40625 L 52.40625 91.0625 L 40.8125 91.0625 L 40.8125 79.46875 L 87.1875 79.46875 L 87.1875 91.0625 L 75.59375 91.0625 L 75.59375 110.40625 L 87.1875 110.40625 L 87.1875 98.8125 L 98.8125 98.78125 L 98.8125 64 L 110.40625 64 L 110.40625 98.78125 L 122 98.78125 L 122 52.375 Z M 40.8125 40.78125 L 52.40625 40.78125 L 52.40625 52.375 L 40.8125 52.375 Z M 87.1875 52.375 L 75.59375 52.375 L 75.59375 40.78125 L 87.1875 40.78125 Z M 87.1875 52.375" transform="matrix(0.125,0,0,0.125,0,0)"/><path style="fill:none;stroke-width:4;stroke-linecap:butt;stroke-linejoin:miter;stroke:#6f21a1;stroke-opacity:1;stroke-miterlimit:10" d="M 87.1875 6.00625 L 98.8125 6.00625 L 98.8125 17.6 L 87.1875 17.6 Z M 87.1875 6.00625" transform="matrix(-0.125,-0.00000000000560575,0.00000000000560575,-0.125,23.25,2.95)"/></g></svg>

<svg xmlns="http://www.w3.org/2000/svg" width="16pt" height="16pt" viewBox="0 0 16 16"><defs><linearGradient id="a" x1="64" x2="64" y1="110.4" y2="17.6" gradientTransform="scale(.125)" gradientUnits="userSpaceOnUse"><stop offset=".072" style="stop-color:#792d85;stop-opacity:1"/><stop offset=".305" style="stop-color:#ac1cb3;stop-opacity:1"/><stop offset=".542" style="stop-color:#d90ddc;stop-opacity:1"/><stop offset=".725" style="stop-color:#f503f6;stop-opacity:1"/><stop offset=".831" style="stop-color:#f0f;stop-opacity:1"/></linearGradient></defs><path d="M3.648 13.8h1.454v1.45H3.648Zm0 0" style="stroke:none;fill-rule:nonzero;fill:#40c0e7;fill-opacity:1"/><path d="M3.648.75h1.454V2.2H3.648Zm0 0" style="stroke:none;fill-rule:nonzero;fill:#f0f;fill-opacity:1"/><path d="M10.898 13.8h1.454v1.45h-1.454Zm0 0" style="stroke:none;fill-rule:nonzero;fill:#40c0e7;fill-opacity:1"/><path d="M13.8 6.547v-1.45h-1.448V3.649h-1.454V2.2H9.45v1.45H6.551v-1.45H5.1v1.45H3.649v1.449H2.2v1.449H.75v5.8H2.2V8h1.448v4.348h1.45l.004.004V13.8H6.55v-2.418H5.1v-1.45h5.797v1.45H9.45V13.8h1.45v-1.45l.003-.003h1.45V8H13.8v4.348h1.449V6.547Zm-8.698-1.45H6.55v1.45H5.1Zm5.796 1.45H9.45v-1.45h1.45Zm0 0" style="stroke:none;fill-rule:nonzero;fill:url(#a)"/><path d="M10.898.75h1.454V2.2h-1.454Zm0 0" style="stroke:none;fill-rule:nonzero;fill:#f0f;fill-opacity:1"/><path d="M29.188 110.406h11.625V122H29.187Zm0 0" style="fill-rule:nonzero;fill:#792d85;fill-opacity:1;stroke-width:4;stroke-linecap:butt;stroke-linejoin:miter;stroke:#6f21a1;stroke-opacity:1;stroke-miterlimit:10" transform="scale(.125)"/><path d="M29.188 6h11.625v11.594H29.187Zm0 0" style="fill:none;stroke-width:4;stroke-linecap:butt;stroke-linejoin:miter;stroke:#6f21a1;stroke-opacity:1;stroke-miterlimit:10" transform="scale(.125)"/><path d="M87.188 110.4h11.624v11.594H87.189Zm0 0" style="fill-rule:nonzero;fill:#792d85;fill-opacity:1;stroke-width:4;stroke-linecap:butt;stroke-linejoin:miter;stroke:#6f21a1;stroke-opacity:1;stroke-miterlimit:10" transform="translate(23.25 29.05)scale(-.125)"/><path d="M110.406 52.375V40.781H98.812V29.188H87.189V17.594H75.594v11.593H52.406V17.595H40.813v11.593H29.187v11.594H17.595v11.594H6v46.406h11.594V64h11.593v34.781h11.594l.032 11.625h11.593V91.062H40.813V79.47h46.375v11.594H75.594v19.343h11.594V98.812l11.624-.03V64h11.594v34.781H122V52.375ZM40.813 40.781h11.593v11.594H40.813Zm46.375 11.594H75.594V40.781h11.594Zm0 0" style="fill:none;stroke-width:4;stroke-linecap:butt;stroke-linejoin:miter;stroke:#6f21a1;stroke-opacity:1;stroke-miterlimit:10" transform="scale(.125)"/><path d="M87.188 6.006h11.624V17.6H87.189Zm0 0" style="fill:none;stroke-width:4;stroke-linecap:butt;stroke-linejoin:miter;stroke:#6f21a1;stroke-opacity:1;stroke-miterlimit:10" transform="translate(23.25 2.95)scale(-.125)"/></svg>
